img/place_type.svg

<svg width="22" height="22" viewBox="0 0 22 22" fill="none" xmlns="http://www.w3.org/2000/svg">
<path d="M5.20009 12.4718C4.96119 12.1382 4.85258 11.709 4.91772 11.3039C4.9612 10.8749 5.15662 10.5173 5.46065 10.255L8.50095 7.65698L6.09036 5.63086C5.9166 5.48787 5.6777 5.48787 5.50396 5.63086L0.878246 9.54009C0.76963 9.63536 0.704491 9.75458 0.704491 9.89756C0.661166 10.0407 0.704491 10.1837 0.791444 10.3029C0.878246 10.4221 1.03034 10.4936 1.11714 10.4936H1.9641V14.4264C1.9641 14.7124 2.18133 14.9508 2.44187 14.9508H6.17719V13.0916C5.80802 13.0439 5.43886 12.8055 5.19997 12.4718L5.20009 12.4718Z" fill="#222222"/>
<path d="M21.1185 9.54005L16.4711 5.60724C16.2973 5.46425 16.0584 5.46425 15.8847 5.60724L13.4741 7.65711L16.5363 10.2552C16.8403 10.5174 17.0357 10.8988 17.0792 11.304C17.1227 11.7329 17.0357 12.1383 16.7968 12.472C16.5579 12.8057 16.2104 13.0202 15.8196 13.0679V14.9508H19.5549C19.8155 14.9508 20.0327 14.7124 20.0327 14.4264V10.4934H20.8362C20.9883 10.4934 21.1185 10.4219 21.2053 10.3027C21.3791 10.0645 21.3356 9.73076 21.1185 9.54007V9.54005Z" fill="#222222"/>
<path d="M15.9502 11.0894L11.3028 7.15656C11.129 7.01357 10.8901 7.01357 10.7164 7.15656L6.04724 11.0894C5.93863 11.1846 5.87349 11.3039 5.85183 11.4468C5.83016 11.5898 5.87349 11.7328 5.93863 11.852C6.02543 11.9712 6.17752 12.0665 6.26432 12.0665H7.11128V15.9756C7.11128 16.2615 7.32851 16.4999 7.58906 16.4999H11.6067V12.6388C11.6067 12.4958 11.7153 12.3766 11.8456 12.3766H12.9749C13.1052 12.3766 13.2138 12.4958 13.2138 12.6388V16.4763H14.3431C14.6037 16.4763 14.8209 16.2379 14.8209 15.9519L14.8208 12.0429H15.6242C15.7763 12.0429 15.9066 11.9714 15.9934 11.8284C16.189 11.59 16.1455 11.2563 15.9501 11.0894L15.9502 11.0894ZM10.369 13.8783C10.369 14.0213 10.2603 14.1405 10.1301 14.1405H9.00074C8.87047 14.1405 8.76185 14.0213 8.76185 13.8783V12.6388C8.76185 12.4958 8.87047 12.3766 9.00074 12.3766H10.1301C10.2603 12.3766 10.369 12.4958 10.369 12.6388V13.8783Z" fill="#222222"/>
</svg>

<svg width="22" height="22" viewBox="0 0 22 22" fill="none" xmlns="http://www.w3.org/2000/svg"><path d="M5.2 12.472a1.6 1.6 0 0 1-.282-1.168c.043-.43.239-.787.543-1.049L8.5 7.657 6.09 5.631a.454.454 0 0 0-.587 0L.878 9.54a.466.466 0 0 0-.174.357.457.457 0 0 0 .087.405c.087.12.24.19.326.19h.847v3.933c0 .286.217.525.478.525h3.735v-1.86c-.369-.047-.738-.285-.977-.62zM21.119 9.54L16.47 5.607a.454.454 0 0 0-.586 0l-2.41 2.05 3.061 2.598c.304.262.5.644.543 1.049.044.429-.043.834-.282 1.168a1.411 1.411 0 0 1-.977.596v1.883h3.735c.26 0 .478-.239.478-.525v-3.933h.803a.449.449 0 0 0 .37-.19.573.573 0 0 0-.087-.763z" fill="#222"/><path d="M15.95 11.09l-4.647-3.933a.454.454 0 0 0-.587 0l-4.669 3.932a.576.576 0 0 0-.195.358.654.654 0 0 0 .087.405c.086.12.239.214.325.214h.847v3.91c0 .286.218.524.478.524h4.018v-3.861c0-.143.108-.262.239-.262h1.129c.13 0 .239.119.239.262v3.837h1.13c.26 0 .477-.238.477-.524v-3.91h.803a.418.418 0 0 0 .37-.214.536.536 0 0 0-.044-.739zm-5.581 2.788c0 .143-.109.262-.239.262H9c-.13 0-.238-.119-.238-.262v-1.24c0-.142.108-.261.239-.261h1.13c.13 0 .238.119.238.262v1.24z" fill="#222"/></svg>
